src/assets/images/ranks/solo_gold_2.svg

<svg height="240" viewBox="0 0 160 240" width="160" xmlns="http://www.w3.org/2000/svg" xmlns:xlink="http://www.w3.org/1999/xlink"><defs><path id="a" d="m0 15.0429903c13.3671046-10.0286602 31.4186929-15.0429903 54.1547651-15.0429903 22.7360721 0 40.7876605 5.0143301 54.1547649 15.0429903v64.4699584c-17.291203 22.9913673-35.6831927 34.4870513-55.1759691 34.4870513-19.4927763 0-37.2039633-11.495684-53.1335609-34.4870513z"/><mask id="b" fill="#fff"><use fill="#fff" fill-rule="evenodd" xlink:href="#a"/></mask></defs><g fill="none" fill-rule="evenodd"><g transform="translate(20 43)"><g fill="#6d5710"><path d="m31 120h58v36l-29 19.440402-29-19.440402z"/><path d="m9 11.2148438c12-7.47656255 28.8333333-11.2148438 50.5-11.2148438s38.5 3.73828125 50.5 11.2148438l-10 43h-81z"/><path d="m0 39.626463c14.7741682-11.0843087 34.7259238-16.626463 59.8552667-16.626463s45.0810983 5.5421543 59.8552663 16.626463v71.25627c-19.111329 25.411511-39.4393181 38.117267-60.9839657 38.117267-21.5446475 0-41.1201699-12.705756-58.7265673-38.117267z"/></g><g transform="translate(6 29)"><use fill="#3c3008" xlink:href="#a"/><path d="m49.2376249 112.718409 1.0288468-42.5863379-2.2980641-2.0141095v-17.1560897c-3.9485059-2.4351902-7.9379751-2.0610387-11.9684076 1.1224545s-6.1050865 6.9039798-6.2239619 11.1614596l-1.8379919 1.9487164c-6.3998001-8.1712767-9.7085939-15.7727836-9.9263815-22.8045206-.2177875-7.0317371 2.6140929-14.8283977 8.4956414-23.3899818l3.268732 2.2118277c2.2771402 4.7195915 5.1960337 8.2536434 8.7566806 10.6021557 3.560647 2.3485122 6.7058766 2.3485122 9.4356889 0l2.2980641-3.3950594h7.4670566l2.2980641 3.3950594c2.7298123 2.3485122 5.8750419 2.3485122 9.4356889 0 3.5606469-2.3485123 6.4795404-5.8825642 8.7566806-10.6021557l3.268732-2.2118277c5.8815485 8.5615841 8.7134289 16.3582447 8.4956414 23.3899818-.2177876 7.031737-3.5265814 14.6332439-9.9263815 22.8045206l-1.8379919-1.9487164c-.1188754-4.2574798-2.1935294-7.9779664-6.2239619-11.1614596s-8.0199017-3.5576447-11.9684076-1.1224545v17.1560897l-2.2980641 2.0141095 1.0288468 42.5863379-4.7623751 6.281591z" fill="#ffe86e" mask="url(#b)"/></g></g><g fill="#ffe86e" transform="translate(44 13)"><path d="m57 0 15 21-15 21-15-21z"/><path d="m15 0 15 21-15 21-15-21z"/></g></g></svg>

<?xml version="1.0" encoding="UTF-8"?>
<svg width="160px" height="240px" viewBox="0 0 160 240" version="1.1" xmlns="http://www.w3.org/2000/svg" xmlns:xlink="http://www.w3.org/1999/xlink">
    <title>solo_gold_2</title>
    <defs>
        <path d="M-5.68434189e-14,15.0429903 C13.3671046,5.0143301 31.4186929,0 54.1547651,0 C76.8908372,0 94.9424256,5.0143301 108.30953,15.0429903 L108.30953,79.5129487 C91.018327,102.504316 72.6263373,114 53.1335609,114 C33.6407846,114 15.9295976,102.504316 -5.68434189e-14,79.5129487 L-5.68434189e-14,15.0429903 Z" id="path-1"></path>
    </defs>
    <g id="solo_gold_2" stroke="none" stroke-width="1" fill="none" fill-rule="evenodd">
        <g id="Group-8" transform="translate(20.000000, 43.000000)">
            <polygon id="Rectangle-Copy-69" fill="#6D5710" points="31 120 89 120 89 156 60 175.440402 31 156"></polygon>
            <path d="M9,11.2148438 C21,3.73828125 37.8333333,0 59.5,0 C81.1666667,0 98,3.73828125 110,11.2148438 L100,54.2148438 L19,54.2148438 L9,11.2148438 Z" id="Rectangle-Copy-75" fill="#6D5710"></path>
            <path d="M0,39.626463 C14.7741682,28.5421543 34.7259238,23 59.8552667,23 C84.9846096,23 104.936365,28.5421543 119.710533,39.626463 L119.710533,110.882733 C100.599204,136.294244 80.2712149,149 58.7265673,149 C37.1819198,149 17.6063974,136.294244 0,110.882733 L0,39.626463 Z" id="Rectangle-Copy-80" fill="#6D5710"></path>
            <g id="Group-6" transform="translate(6.000000, 29.000000)">
                <mask id="mask-2" fill="white">
                    <use xlink:href="#path-1"></use>
                </mask>
                <use id="Rectangle-Copy-83" fill="#3C3008" xlink:href="#path-1"></use>
                <path d="M49.2376249,112.718409 L50.2664717,70.1320711 L47.9684076,68.1179616 L47.9684076,50.9618719 C44.0199017,48.5266817 40.0304325,48.9008332 36,52.0843264 C31.9695675,55.2678196 29.8949135,58.9883062 29.7760381,63.245786 L27.9380462,65.1945024 C21.5382461,57.0232257 18.2294523,49.4217188 18.0116647,42.3899818 C17.7938772,35.3582447 20.6257576,27.5615841 26.5073061,19 L29.7760381,21.2118277 C32.0531783,25.9314192 34.9720718,29.4654711 38.5327187,31.8139834 C42.0933657,34.1624956 45.2385953,34.1624956 47.9684076,31.8139834 L50.2664717,28.418924 L57.7335283,28.418924 L60.0315924,31.8139834 C62.7614047,34.1624956 65.9066343,34.1624956 69.4672813,31.8139834 C73.0279282,29.4654711 75.9468217,25.9314192 78.2239619,21.2118277 L81.4926939,19 C87.3742424,27.5615841 90.2061228,35.3582447 89.9883353,42.3899818 C89.7705477,49.4217188 86.4617539,57.0232257 80.0619538,65.1945024 L78.2239619,63.245786 C78.1050865,58.9883062 76.0304325,55.2678196 72,52.0843264 C67.9695675,48.9008332 63.9800983,48.5266817 60.0315924,50.9618719 L60.0315924,68.1179616 L57.7335283,70.1320711 L58.7623751,112.718409 L54,119 L49.2376249,112.718409 Z" id="Combined-Shape" fill="#FFE86E" mask="url(#mask-2)"></path>
            </g>
        </g>
        <g id="Group-3-Copy-11" transform="translate(44.000000, 13.000000)" fill="#FFE86E">
            <polygon id="Polygon-Copy-43" points="57 0 72 21 57 42 42 21"></polygon>
            <polygon id="Polygon-Copy-48" points="15 0 30 21 15 42 0 21"></polygon>
        </g>
    </g>
</svg>
